ligands/tetradentate/salen.svg

<svg height="56" viewBox="0 0 121 56" width="121" xmlns="http://www.w3.org/2000/svg"><path d="m4619.75 4450.47 3.47 6-3.47 6h-281.07l-6.93-12z" transform="matrix(.05 0 0 .05 -207 -195)"/><path d="m4593.29 4502.31v12h-228.14v-12z" transform="matrix(.05 0 0 .05 -207 -195)"/><path d="m4331.75 4450.47 6.93 12-140.54 243.41h-13.85z" transform="matrix(.05 0 0 .05 -207 -195)"/><path d="m4184.29 4705.88h13.85l140.54 243.41-6.93 12z" transform="matrix(.05 0 0 .05 -207 -195)"/><path d="m4245.88 4708.88 10.39-6 114.07 197.57-10.39 6z" transform="matrix(.05 0 0 .05 -207 -195)"/><path d="m4331.75 4961.29 6.93-12h281.07l6.93 12z" transform="matrix(.05 0 0 .05 -207 -195)"/><path d="m4626.68 4961.29-6.93-12 140.54-243.41h6.93l3.46 6z" transform="matrix(.05 0 0 .05 -207 -195)"/><path d="m4598.48 4906.45-10.39-6 114.07-197.57 10.39 6z" transform="matrix(.05 0 0 .05 -207 -195)"/><path d="m4770.68 4699.88-3.46 6h-6.93l-140.54-243.41 3.47-6h6.92z" transform="matrix(.05 0 0 .05 -207 -195)"/><text font-family="Arial" font-size="200" font-weight="bold" transform="matrix(.05 0 0 .05 41.872 43.873)">O</text><path d="m4770.68 4711.88-3.46-6 3.46-6h182.44v12z" transform="matrix(.05 0 0 .05 -207 -195)"/><path d="m4630.14 4456.47h-6.92l-3.47-6 144-249.41 6.93 12z" transform="matrix(.05 0 0 .05 -207 -195)"/><text font-family="Arial" font-size="200" font-weight="bold" transform="matrix(.05 0 0 .05 42.15 18.932)">N</text><path d="m4770.68 4213.06-6.93-12h201.09v12z" transform="matrix(.05 0 0 .05 -207 -195)"/><path d="m4797.14 4264.9v-12h167.7v12z" transform="matrix(.05 0 0 .05 -207 -195)"/><path d="m5121.32 4104.58-10.4-6 84.83-146.92 6.93 12z" transform="matrix(.05 0 0 .05 -207 -195)"/><path d="m5202.68 3963.66-6.93-12h294.93l-6.93 12z" transform="matrix(.05 0 0 .05 -207 -195)"/><text font-family="Arial" font-size="200" font-weight="bold" transform="matrix(.05 0 0 .05 70.95 18.932)">N</text><g transform="matrix(.05 0 0 .05 -207 -195)"><path d="m5483.75 3963.66 6.93-12 84.14 145.73-10.39 6z"/><path d="m5718.84 4213.06v-12h203.84l-6.93 12z"/><path d="m5718.84 4264.9v-12h170.45v12z"/><path d="m5915.75 4213.06 6.93-12 144 249.41-3.46 6h-6.93z"/><path d="m6056.29 4456.47h6.93l3.46 6-140.54 243.41h-6.92l-3.47-6z"/><path d="m6087.95 4505.31 10.39 6-114.07 197.57-10.39-6z"/><path d="m5915.75 4711.88 3.47-6h6.92l140.54 243.41-6.93 12z"/><path d="m6059.75 4961.29 6.93-12h281.07l6.93 12z"/><path d="m6093.14 4909.45v-12h228.15v12z"/><path d="m6354.68 4961.29-6.93-12 140.54-243.41h13.85z"/><path d="m6502.14 4705.88h-13.85l-140.54-243.41 6.93-12z"/><path d="m6440.55 4702.88-10.39 6-114.07-197.57 10.39-6z"/><path d="m6354.68 4450.47-6.93 12h-281.07l-3.46-6 3.46-6z"/></g><text font-family="Arial" font-size="200" font-weight="bold" transform="matrix(.05 0 0 .05 70.672 43.873)">O</text><path d="m5915.75 4699.88 3.47 6-3.47 6h-183.63v-12z" transform="matrix(.05 0 0 .05 -207 -195)"/><path d="m5135.65 4636.52-8.33-8.63 206.72-199.69 9.18-.53v8.34z" transform="matrix(.05 0 0 .05 -207 -195)"/><path d="m5343.22 4420.11v7.56l-9.18.53-187.54-143.65 7.3-9.53z" transform="matrix(.05 0 0 .05 -207 -195)"/><path d="m5352.4 4428.2-9.18-.53v-7.56l187.68-143.76 7.3 9.53z" transform="matrix(.05 0 0 .05 -207 -195)"/><path d="m5343.22 4436.01v-8.34l9.18.53 206.12 199.11-8.34 8.63z" transform="matrix(.05 0 0 .05 -207 -195)"/><path d="m5191.66 4440a148.34 148.34 0 1 0 296.68 0 148.34 148.34 0 1 0 -296.68 0z" fill="#fa666a" transform="matrix(.05 0 0 .05 -207 -195)"/></svg>

<?xml version="1.0" standalone="no" ?>
<!DOCTYPE svg PUBLIC "-//W3C//DTD SVG 1.1//EN" "http://www.w3.org/Graphics/SVG/1.1/DTD/svg11.dtd">
<svg width="121px" height="56px" viewBox="0 0 121 56" style="background-color: #ffffff00" xmlns="http://www.w3.org/2000/svg" xmlns:xlink="http://www.w3.org/1999/xlink" version="1.1" >
<path stroke="none" fill="#000000" transform="matrix(0.05 0 0 0.05 -207 -195)" d="M 4619.75,4450.47 L 4623.22,4456.47 L 4619.75,4462.47 L 4338.68,4462.47 L 4331.75,4450.47 L 4619.75,4450.47 Z " />
<path stroke="none" fill="#000000" transform="matrix(0.05 0 0 0.05 -207 -195)" d="M 4593.29,4502.31 L 4593.29,4514.31 L 4365.15,4514.31 L 4365.15,4502.31 L 4593.29,4502.31 Z " />
<path stroke="none" fill="#000000" transform="matrix(0.05 0 0 0.05 -207 -195)" d="M 4331.75,4450.47 L 4338.68,4462.47 L 4198.14,4705.88 L 4184.29,4705.88 L 4331.75,4450.47 Z " />
<path stroke="none" fill="#000000" transform="matrix(0.05 0 0 0.05 -207 -195)" d="M 4184.29,4705.88 L 4198.14,4705.88 L 4338.68,4949.29 L 4331.75,4961.29 L 4184.29,4705.88 Z " />
<path stroke="none" fill="#000000" transform="matrix(0.05 0 0 0.05 -207 -195)" d="M 4245.88,4708.88 L 4256.27,4702.88 L 4370.34,4900.45 L 4359.95,4906.45 L 4245.88,4708.88 Z " />
<path stroke="none" fill="#000000" transform="matrix(0.05 0 0 0.05 -207 -195)" d="M 4331.75,4961.29 L 4338.68,4949.29 L 4619.75,4949.29 L 4626.68,4961.29 L 4331.75,4961.29 Z " />
<path stroke="none" fill="#000000" transform="matrix(0.05 0 0 0.05 -207 -195)" d="M 4626.68,4961.29 L 4619.75,4949.29 L 4760.29,4705.88 L 4767.22,4705.88 L 4770.68,4711.88 L 4626.68,4961.29 Z " />
<path stroke="none" fill="#000000" transform="matrix(0.05 0 0 0.05 -207 -195)" d="M 4598.48,4906.45 L 4588.09,4900.45 L 4702.16,4702.88 L 4712.55,4708.88 L 4598.48,4906.45 Z " />
<path stroke="none" fill="#000000" transform="matrix(0.05 0 0 0.05 -207 -195)" d="M 4770.68,4699.88 L 4767.22,4705.88 L 4760.29,4705.88 L 4619.75,4462.47 L 4623.22,4456.47 L 4630.14,4456.47 L 4770.68,4699.88 Z " />
<text x="0" y="0" stroke="none" fill="#000000" transform="matrix(0.05 0 0 0.05 41.8716 43.8731)" font-style="normal" font-weight="bold" font-size="200px" font-family="Arial" >
O</text>
<path stroke="none" fill="#000000" transform="matrix(0.05 0 0 0.05 -207 -195)" d="M 4770.68,4711.88 L 4767.22,4705.88 L 4770.68,4699.88 L 4953.12,4699.88 L 4953.12,4711.88 L 4770.68,4711.88 Z " />
<path stroke="none" fill="#000000" transform="matrix(0.05 0 0 0.05 -207 -195)" d="M 4630.14,4456.47 L 4623.22,4456.47 L 4619.75,4450.47 L 4763.75,4201.06 L 4770.68,4213.06 L 4630.14,4456.47 Z " />
<text x="0" y="0" stroke="none" fill="#000000" transform="matrix(0.05 0 0 0.05 42.1499 18.9323)" font-style="normal" font-weight="bold" font-size="200px" font-family="Arial" >
N</text>
<path stroke="none" fill="#000000" transform="matrix(0.05 0 0 0.05 -207 -195)" d="M 4770.68,4213.06 L 4763.75,4201.06 L 4964.84,4201.06 L 4964.84,4213.06 L 4770.68,4213.06 Z " />
<path stroke="none" fill="#000000" transform="matrix(0.05 0 0 0.05 -207 -195)" d="M 4797.14,4264.9 L 4797.14,4252.9 L 4964.84,4252.9 L 4964.84,4264.9 L 4797.14,4264.9 Z " />
<path stroke="none" fill="#000000" transform="matrix(0.05 0 0 0.05 -207 -195)" d="M 5121.32,4104.58 L 5110.92,4098.58 L 5195.75,3951.66 L 5202.68,3963.66 L 5121.32,4104.58 Z " />
<path stroke="none" fill="#000000" transform="matrix(0.05 0 0 0.05 -207 -195)" d="M 5202.68,3963.66 L 5195.75,3951.66 L 5490.68,3951.66 L 5483.75,3963.66 L 5202.68,3963.66 Z " />
<text x="0" y="0" stroke="none" fill="#000000" transform="matrix(0.05 0 0 0.05 70.9499 18.9323)" font-style="normal" font-weight="bold" font-size="200px" font-family="Arial" >
N</text>
<path stroke="none" fill="#000000" transform="matrix(0.05 0 0 0.05 -207 -195)" d="M 5483.75,3963.66 L 5490.68,3951.66 L 5574.82,4097.39 L 5564.43,4103.39 L 5483.75,3963.66 Z " />
<path stroke="none" fill="#000000" transform="matrix(0.05 0 0 0.05 -207 -195)" d="M 5718.84,4213.06 L 5718.84,4201.06 L 5922.68,4201.06 L 5915.75,4213.06 L 5718.84,4213.06 Z " />
<path stroke="none" fill="#000000" transform="matrix(0.05 0 0 0.05 -207 -195)" d="M 5718.84,4264.9 L 5718.84,4252.9 L 5889.29,4252.9 L 5889.29,4264.9 L 5718.84,4264.9 Z " />
<path stroke="none" fill="#000000" transform="matrix(0.05 0 0 0.05 -207 -195)" d="M 5915.75,4213.06 L 5922.68,4201.06 L 6066.68,4450.47 L 6063.22,4456.47 L 6056.29,4456.47 L 5915.75,4213.06 Z " />
<path stroke="none" fill="#000000" transform="matrix(0.05 0 0 0.05 -207 -195)" d="M 6056.29,4456.47 L 6063.22,4456.47 L 6066.68,4462.47 L 5926.14,4705.88 L 5919.22,4705.88 L 5915.75,4699.88 L 6056.29,4456.47 Z " />
<path stroke="none" fill="#000000" transform="matrix(0.05 0 0 0.05 -207 -195)" d="M 6087.95,4505.31 L 6098.34,4511.31 L 5984.27,4708.88 L 5973.88,4702.88 L 6087.95,4505.31 Z " />
<path stroke="none" fill="#000000" transform="matrix(0.05 0 0 0.05 -207 -195)" d="M 5915.75,4711.88 L 5919.22,4705.88 L 5926.14,4705.88 L 6066.68,4949.29 L 6059.75,4961.29 L 5915.75,4711.88 Z " />
<path stroke="none" fill="#000000" transform="matrix(0.05 0 0 0.05 -207 -195)" d="M 6059.75,4961.29 L 6066.68,4949.29 L 6347.75,4949.29 L 6354.68,4961.29 L 6059.75,4961.29 Z " />
<path stroke="none" fill="#000000" transform="matrix(0.05 0 0 0.05 -207 -195)" d="M 6093.14,4909.45 L 6093.14,4897.45 L 6321.29,4897.45 L 6321.29,4909.45 L 6093.14,4909.45 Z " />
<path stroke="none" fill="#000000" transform="matrix(0.05 0 0 0.05 -207 -195)" d="M 6354.68,4961.29 L 6347.75,4949.29 L 6488.29,4705.88 L 6502.14,4705.88 L 6354.68,4961.29 Z " />
<path stroke="none" fill="#000000" transform="matrix(0.05 0 0 0.05 -207 -195)" d="M 6502.14,4705.88 L 6488.29,4705.88 L 6347.75,4462.47 L 6354.68,4450.47 L 6502.14,4705.88 Z " />
<path stroke="none" fill="#000000" transform="matrix(0.05 0 0 0.05 -207 -195)" d="M 6440.55,4702.88 L 6430.16,4708.88 L 6316.09,4511.31 L 6326.48,4505.31 L 6440.55,4702.88 Z " />
<path stroke="none" fill="#000000" transform="matrix(0.05 0 0 0.05 -207 -195)" d="M 6354.68,4450.47 L 6347.75,4462.47 L 6066.68,4462.47 L 6063.22,4456.47 L 6066.68,4450.47 L 6354.68,4450.47 Z " />
<text x="0" y="0" stroke="none" fill="#000000" transform="matrix(0.05 0 0 0.05 70.6716 43.8731)" font-style="normal" font-weight="bold" font-size="200px" font-family="Arial" >
O</text>
<path stroke="none" fill="#000000" transform="matrix(0.05 0 0 0.05 -207 -195)" d="M 5915.75,4699.88 L 5919.22,4705.88 L 5915.75,4711.88 L 5732.12,4711.88 L 5732.12,4699.88 L 5915.75,4699.88 Z " />
<path stroke="none" fill="#000000" transform="matrix(0.05 0 0 0.05 -207 -195)" d="M 5135.65,4636.52 L 5127.32,4627.89 L 5334.04,4428.2 L 5343.22,4427.67 L 5343.22,4436.01 L 5135.65,4636.52 Z " />
<path stroke="none" fill="#000000" transform="matrix(0.05 0 0 0.05 -207 -195)" d="M 5343.22,4420.11 L 5343.22,4427.67 L 5334.04,4428.2 L 5146.5,4284.55 L 5153.8,4275.02 L 5343.22,4420.11 Z " />
<path stroke="none" fill="#000000" transform="matrix(0.05 0 0 0.05 -207 -195)" d="M 5352.4,4428.2 L 5343.22,4427.67 L 5343.22,4420.11 L 5530.9,4276.35 L 5538.2,4285.88 L 5352.4,4428.2 Z " />
<path stroke="none" fill="#000000" transform="matrix(0.05 0 0 0.05 -207 -195)" d="M 5343.22,4436.01 L 5343.22,4427.67 L 5352.4,4428.2 L 5558.52,4627.31 L 5550.18,4635.94 L 5343.22,4436.01 Z " />
<path stroke="none" fill="#fa666a" transform="matrix(0.05 0 0 0.05 -207 -195)" d="M 5191.66,4440 A 148.34,148.34 0 1 0 5488.34,4440 A 148.34,148.34 0 1 0 5191.66,4440 Z " />
</svg>
